icons/2_Variations/TikTok bg.var.svg

<svg xmlns="http://www.w3.org/2000/svg" width="1024" height="1024" fill="none">
   <g clip-path="url(#a)">
      <path fill="#FF837D" d="M512 1024c282.77 0 512-229.23 512-512S794.77 0 512 0 0 229.23 0 512s229.23 512 512 512Z"/>
      <path fill="#fff" d="M732.63 380.26v87.16c-45.2 0-87.08-14.46-121.27-39v177.14c0 88.46-71.97 160.43-160.43 160.43-34.19 0-65.88-10.78-91.94-29.08-41.37-29.05-68.49-77.08-68.49-131.36 0-88.46 71.97-160.44 160.43-160.44 7.34 0 14.54.6 21.62 1.57v88.98c-6.84-2.14-14.08-3.39-21.62-3.39-40.4 0-73.27 32.87-73.27 73.27 0 28.13 15.96 52.58 39.28 64.85 10.17 5.35 21.72 8.42 33.99 8.42 39.47 0 71.66-31.4 73.13-70.51l.14-349.32h87.16c0 7.56.73 14.94 2.06 22.12 6.15 33.21 25.86 61.7 53.17 79.51 19.02 12.4 41.69 19.64 66.04 19.64v.01Z"/>
   </g>
   <defs>
      <clipPath id="a">
         <path fill="#fff" d="M0 0h1024v1024H0z"/>
      </clipPath>
   </defs>
</svg>

<svg width="1024" height="1024" viewBox="0 0 1024 1024" fill="none" xmlns="http://www.w3.org/2000/svg">
<g clip-path="url(#clip0_3_287)">
<path d="M512 1024C794.77 1024 1024 794.77 1024 512C1024 229.23 794.77 0 512 0C229.23 0 0 229.23 0 512C0 794.77 229.23 1024 512 1024Z" fill="#FF837D"/>
<path d="M732.63 380.26V467.42C687.43 467.42 645.55 452.96 611.36 428.42V605.56C611.36 694.02 539.39 765.99 450.93 765.99C416.74 765.99 385.05 755.21 358.99 736.91C317.62 707.86 290.5 659.83 290.5 605.55C290.5 517.09 362.47 445.11 450.93 445.11C458.27 445.11 465.47 445.71 472.55 446.68V535.66C465.71 533.52 458.47 532.27 450.93 532.27C410.53 532.27 377.66 565.14 377.66 605.54C377.66 633.67 393.62 658.12 416.94 670.39C427.11 675.74 438.66 678.81 450.93 678.81C490.4 678.81 522.59 647.41 524.06 608.3L524.2 258.98H611.36C611.36 266.54 612.09 273.92 613.42 281.1C619.57 314.31 639.28 342.8 666.59 360.61C685.61 373.01 708.28 380.25 732.63 380.25V380.26Z" fill="white"/>
</g>
<defs>
<clipPath id="clip0_3_287">
<rect width="1024" height="1024" fill="white"/>
</clipPath>
</defs>
</svg>
